packages/core/src/svgs/tokens/mono/SI.svg

<svg width="24" height="24" viewBox="0 0 24 24" fill="none" xmlns="http://www.w3.org/2000/svg">
<path d="M14.7759 12.7707C14.0347 12.459 13.1524 12.2413 12.1289 12.1178C12.0466 12.106 11.9642 12.1178 11.8818 12.1353C11.3054 12.2943 10.7053 12.4178 10.0583 12.4884C8.82296 12.6413 7.85237 12.4884 7.13472 12.053C6.85989 11.8897 6.62728 11.664 6.45563 11.3943C6.28396 11.1246 6.17809 10.8182 6.14649 10.5001C6.01709 9.53546 6.32297 8.79423 7.07591 8.2707C7.50738 7.97979 7.98753 7.76859 8.49355 7.64717C9.82302 7.31188 11.5054 7.21188 13.5406 7.35893C14.9758 7.46481 16.3406 7.65305 17.6465 7.91775C17.6818 7.91775 17.6935 7.94129 17.6877 7.97658L17.6347 8.2354C17.5759 8.5707 17.5112 8.81187 17.4407 8.95305C17.3229 9.20011 17.1524 9.35305 16.9229 9.4236C16.7935 9.45311 16.6406 9.45887 16.4641 9.4236C14.6323 9.09648 12.7711 8.96241 10.9112 9.02364C10.4523 9.04129 10.0171 9.07069 9.61714 9.12952C8.92885 9.22363 8.48767 9.4354 8.29943 9.76481C8.1465 10.0353 8.13472 10.3119 8.25825 10.5883C8.37002 10.8354 8.55826 11.0354 8.82885 11.1883C9.11708 11.353 9.35828 11.4649 9.54055 11.5354C10.2171 11.7707 10.9406 11.9472 11.7171 12.0472C11.8171 12.0648 11.9171 12.0589 12.0054 12.0354C12.8347 11.8177 13.7053 11.6824 14.6112 11.6296C15.251 11.58 15.8937 11.6808 16.4877 11.9237C16.7927 12.0336 17.0679 12.2132 17.2915 12.448C17.5151 12.6829 17.681 12.9666 17.7758 13.2766C17.9348 13.8413 17.9171 14.3531 17.7112 14.8295C17.5053 15.3002 17.1465 15.6589 16.6347 15.9236C16.1112 16.1883 15.5347 16.3765 14.9053 16.4825C13.8641 16.659 12.7641 16.7295 11.6112 16.7002C9.78048 16.6421 7.9571 16.4395 6.15827 16.0942C6.12885 16.0883 6.12296 16.0707 6.12885 16.0413L6.16414 15.8412C6.22884 15.5001 6.29943 15.2531 6.37002 15.1118C6.48768 14.8707 6.67591 14.7178 6.91708 14.653C7.15627 14.617 7.40022 14.6291 7.63473 14.6883C8.06415 14.7706 8.49355 14.8295 8.92885 14.8766C10.3171 15.0177 11.7112 15.0707 13.1112 15.0295C13.5642 15.0177 14.0112 14.9765 14.4642 14.9119C15.4818 14.759 15.9112 14.3413 15.7465 13.6531C15.6822 13.4276 15.5405 13.2319 15.3464 13.1001C15.1701 12.9648 14.9758 12.853 14.7759 12.7707Z" fill="white"/>
<path fill-rule="evenodd" clip-rule="evenodd" d="M12 22C14.6522 22 17.1957 20.9464 19.071 19.071C20.9464 17.1957 22 14.6522 22 12C22 9.34785 20.9464 6.80429 19.071 4.92892C17.1957 3.05357 14.6522 2 12 2C9.34785 2 6.80429 3.05357 4.92892 4.92892C3.05357 6.80429 2 9.34785 2 12C2 14.6522 3.05357 17.1957 4.92892 19.071C6.80429 20.9464 9.34785 22 12 22ZM12 20.8235C14.3401 20.8235 16.5845 19.8938 18.2392 18.2392C19.8938 16.5845 20.8235 14.3401 20.8235 12C20.8235 9.65983 19.8938 7.41554 18.2392 5.76081C16.5845 4.10608 14.3401 3.17647 12 3.17647C9.65983 3.17647 7.41554 4.10608 5.76081 5.76081C4.10608 7.41554 3.17647 9.65983 3.17647 12C3.17647 14.3401 4.10608 16.5845 5.76081 18.2392C7.41554 19.8938 9.65983 20.8235 12 20.8235Z" fill="white"/>
</svg>

<svg xmlns="http://www.w3.org/2000/svg" width="24" height="24" fill="none" viewBox="0 0 24 24">
    <path fill="#fff" d="M14.776 12.77q-1.112-.467-2.647-.652a.7.7 0 0 0-.247.017 11.5 11.5 0 0 1-1.824.353c-1.235.153-2.206 0-2.923-.435a2.04 2.04 0 0 1-.989-1.553c-.129-.965.177-1.706.93-2.23a4.4 4.4 0 0 1 1.418-.623c1.329-.335 3.011-.435 5.047-.288 1.435.106 2.8.294 4.105.559.036 0 .047.023.042.059l-.053.258q-.09.505-.194.718c-.118.247-.289.4-.518.47a1.1 1.1 0 0 1-.459 0 26.6 26.6 0 0 0-5.553-.4c-.459.018-.894.048-1.294.107q-1.034.14-1.318.635a.87.87 0 0 0-.04.823q.166.37.57.6c.288.165.53.277.712.347.676.236 1.4.412 2.176.512.1.018.2.012.288-.012q1.246-.326 2.606-.405a4.1 4.1 0 0 1 1.877.294 2.09 2.09 0 0 1 1.288 1.353c.159.564.141 1.076-.065 1.553-.206.47-.564.829-1.076 1.094a6 6 0 0 1-1.73.559 17 17 0 0 1-3.294.217 35 35 0 0 1-5.453-.606c-.03-.006-.035-.023-.03-.053l.036-.2c.065-.34.135-.588.206-.73a.83.83 0 0 1 .547-.458c.24-.036.483-.024.718.035.43.083.859.141 1.294.189 1.388.14 2.782.194 4.182.152.453-.011.9-.053 1.353-.117 1.018-.153 1.447-.57 1.282-1.259a1 1 0 0 0-.4-.553 2.5 2.5 0 0 0-.57-.33"/>
    <path fill="#fff" fill-rule="evenodd" d="M12 22a10 10 0 1 0 0-20 10 10 0 0 0 0 20m0-1.177a8.824 8.824 0 1 0 0-17.648 8.824 8.824 0 0 0 0 17.649" clip-rule="evenodd"/>
</svg>
